X: 30267
T: Old Langolee
R: jig
M: 6/8
K: Fmajor
F3 A3|GFG AFD|CDF F2 d|cBA G2 F|
F3 A2 A|GFG AFD|CDF F2 d|cBA {A}G2 F|
ABc cd_e|dcB AGF|ABc cd_e|d=ec f2 z2|
FAc fed|cBA G2 F|FCF FCF|FBA {A}G2 F||

